X: 1
T: Kitty McGee
M: 6/8
L: 1/8
K: D
A \
| "D"d2d AFA | "D"d3 "A7"efg | "D"f2d "E7"e2d | "A7"cec ABc \
| "D"d2d AFA | "D"d3 "A7"efg | "D"f2d "A7"e2c |  "D"d2d d2 :|
|: A \
| "D"d2f agf | "Em"e2f "A7"g3 | "D"f2d "E7"e2d | "A7"cec A3 \
| "D"a2a g2f | "Em"e2f "A7"g3 | "D"f2d "A7"e2c | "D"d2d d2 :|
